X:1
T:Quanti son poi
T:Quanti son poi
T:Jean de Castro
T:Source : Chansons, madrigaux et motetz à 3 parties---Anvers---P.Phalèse---1582. Editor : André Vierendeels (31/01/16).
T:Notes : Original clefs : C1, C3, C4 Editorial accidentals above the staff
T:©
T:©
T:©
T:©
T:©
T:©
T:©
C:Jean de Castro
Z:©
%%score [ 1 2 3 ]
L:1/8
Q:1/4=114
M:2/2
K:C
V:1 treble nm="Superiius" snm="S"
V:2 treble nm="Alto" snm="A"
V:3 treble-8 nm="Tenor" snm="T"
V:1
 z8 | z8 | A8 | c4 B4 | A4 z2 A2 | A4 G4 | A8- | A8 | z4 d4 | d4 ^c4 | d8 | z2 d3 d A2 | c2 c2 B4 | %13
w: ||Quan-|ti son-|poi, quan-|ti son|poi,|_|quan-|ti son|poi|che di- ve-|nu- ti'a- man-|
 c4 z4 | A4 B2 c2 | d4 c2 A2- | A2 F4 G2- | G2 F2 E4 | D4 z2 E2 | F2 G2 A4- | A4 c4 | B4 A4 | %22
w: ti,|de duo be-|gli'oc- chi'e d'un|_ leg- gia-|* dro vi-|so, de|duo be- gli'oc-|* chi'e|d'un leg-|
 B2 c2 d4- | d4 ^c4 | d4 z2 A2 | A4 A4 | A8- | A8- | A8 | z4 B4 | c8- | c4 B4 | A4 G4 | A8 | %34
w: gia- dro vi-||so, si|pa- scon|sol|_||di|do-|* lo-|ro- si|pian-|
 G4 E4- | E2 E2 c4 | A3 G A2 B2 | c8 | z4 B4- | B2 B2 d4 | A3 G A2 B2 | c4 z2 c2 | B4 A4 | B8 | %44
w: ti, da|_ se stes-|si te- nen- do'il|cor,|da|_ se stes|si te- nen- do'il|cor, il|cor di-|vi-|
 A4 z2 E2 | A3 B c2 A2 | B2 d2 d2 ^c2 | d4 A4 | z2 d4 c2- | c2 B2 A4 | G4 z2 A2- | A2 G4 F2 | %52
w: so, ne|gio- ia, ne pia-|cer so- no ba-|stan- ti,|trar li|_ dal pet-|to, trar|_ li dal|
 E4 D4 | z2 G2 G2 F2 | E4 E2 A2- | A2 A2 ^G4 | A4 F4 | EDEF GEFG | A8- | A8 | z4 A4- | %61
w: pet- to,|trar li dal|pet- to, se|_ non fin-|to ri-|so, _ _ _ _ _ _ _|_||e|
 A2 A2 B2 cd | c2 BA B4 | A4 ^G4 | A2 A2 F2 D2 | E4 D2 d2 | A3 B c2 c2 | G4 z2 d2 | A3 B c2 c2 | %69
w: _ se lie- * *||ti tal|hor, si mon- stran|fuo- ri, han-|no per un pia-|cer, han-|no per un pia-|
 G8 | z4 A4- | A4 G4- | G4 F4 | E8 | D4 d4 | A3 B c2 c2 | G4 z2 d2 | A3 B c2 c2 | G8 | z4 A4 | %80
w: cer,|mil-|* le|_ do-|lo-|ri, han-|no per un pia-|cer, han-|no per un pia-|cer,|mil-|
 F6 E2 | F4 G4- | G4 F4 | E8 | ^F8 |] %85
w: le _|_ _|* do-|lo-|ri.|
V:2
 D8 | F4 E4 | D4 z2 A,2 | A,4 ^G,4 | A,4 z2 E2 | E4 D4 | E4 z2 D2 | F4 E4 | D4 ^F4 | G4 E4 | %10
w: Quan-|ti son|poi, quan-|ti son|poi quan-|ti son|poi, quan-|ti son|poi, quan-|ti son|
 D2 A2 G2 ^F2- | F2 G3 G =F2 | E2 A2 ^G4 | A4 z2 E2 | ^F2 A2 G4- | G4 E4 | F4 D4 | D2 D2 ^C4 | %18
w: poi che di ve-|* nu- ti'a- man-|ti, a- man-|ti, de|duo be- gli'oc-|* chi'e|d'un leg-|gia- dro vi-|
 D4 z2 ^C2 | D2 E2 F4- | F4 A4 | G4 ^F4 | G4 G4 | E8 |"^#" F8 | z4 F4 | F4 F4 | E4 F4- | F4 E4- | %29
w: so, de|duo be- gli'oc-|* chi'e|d'un leg-|gia- dro|vi-|so,|si|pa- scon|sol di|_ do-|
 E4 D4 | C4 B,4 | A,4 G,4 | A,4 B,4 | C4 D4 | E8 | z4 E4- | E2 E2 F4 | E2 C2 E3 F | G8 | z4 F4- | %40
w: * lo-|si pian-||||ti,|da|_ se stes-|si te- nen- do'il|cor,|da|
 F2 F2 D4 | E2 C2 E3 F | G2 E2 A4- |"^#" A2 GF G4 |"^-natural" E2 E2 F3 C | D2 F2 E2 ^F2 | %46
w: _ se stes-|si te- nen- do'il|cor di- vi-||so, ne gio- ia,,|ne pia- cer so-|
 G2 F2 E4 | D2 F2 F2 E2 | F4 E4 | z2 F4 E2- | E2 D2 C4 | B,4 z2 C2- | C2 B,4 A,2 | G,4 A,4 | %54
w: no ba- stan-|ti, trar li dal|pet- to,|trar li|_ dal pet-|to, trar|_ li dal|pet- to,|
 z4 ^C4 | D4 B,4 | A,4 A,G,A,B, | C2 B,A, G,2 D2 | z4 F4- | F2 F2 D3 C | D2 E2 F2 E2 | F2 E2 D4 | %62
w: se|non fin-|to ri- * * *|* * * * so,|e|_ se lie- *|||
 E2 E2 G4 | z2 E2 E4 | z2 A,2 D2 D2 | ^C4 D4 | z4 A4 | E3 F G2 G2 | ^F4 z2 A2 | E3 F G2 D2 | F8 | %71
w: ti tal hor,|tal hor,|si mon- stra|fuo- ri,|han-|no per un pia-|cer, han-|no per un pia-|cer,|
 D4 E4- | E4 D4 | ^C8 | D6 E2 | ^F4 z2 A2 | E3 F G2 G2 | ^F4 z2 A2 | E3 F G2 D2 | A4 F4 | D8- | %81
w: mil- le|_ do-|lo-|ri, han-|no, han-|no per un pia-|cer, han-|no per un pia-|cer, mil-|le|
 D4 E4- | E4 D4- | D4 ^C4 | D8 |] %85
w: _ do-|* lo-||ri.|
V:3
 z8 | z8 | z8 | z8 | z4 A4 | c4 B4 | A4 d4 | d4 c4 | f4 d4 | G4 A4 | D4 z2 d2- | d2 G2 d4 | %12
w: ||||Quan-|ti son|poi, quan-|ti son|poi, quan-|ti son|poi che|_ di ve-|
 c2 A2 e4 | A2 A2 B2 c2 | d4 G4- | G4 A4 | D6 G2- | G2 D2 A4 | D4 z2 A2 | d2 c2 F4- | F4 F4 | %21
w: nu- ti'a- man-|ti, de duo be-|gli'oc- chi'e|_ d'un|leg- gia-|* dro vi-|so, de|duo be- gl''oc-|* chi'e|
 G4 D4 | G4 G4 | A8 | d8 | z4 d4 | d4 d4 | A4 d4- | d4 c4- | c4 B4 | A4 G4 | F8- | F8- | F8 | E8 | %35
w: d'un leg-|gia- dro|vi-|so,|si|pa- scon|sol di|_ do-|* lo-|ro- si|pian-|||ti,|
 z4 A4- | A2 A2 d4 | c2 A2 c3 d | e8 | z4 d4- | d2 d2 f4 | c2 A2 c3 d | e4 f4 | e8 | A2 A2 d3 e | %45
w: da|_ se stes-|si te- nen- do'il|cor,|da|_ se stes-|si te- nen- do'il|cor di-|vi-|so, ne gio- ia,|
 f2 d2 c2 d2 | G2 D2 A4 | D2 d2 d2 ^c2 | d4 A4 | z2 d4 c2- | c2 B2 A4 | E4 z2 A2- | A2 G4 F2 | %53
w: ne pia- cer so-|no ba- stan-|ti, trar li dal|pet- to,|trar li|_ dal pet-|to, trar|_ li dal|
 E4 D4 | z4 A4 | D4 E4 | F4 DEFG | A2 GF E2 D2 | z4 d4- | d2 d2 f3 e | d2 c2 d2 A2 | d2 c2 B4 | %62
w: pet- to,|se|non fin-|to ri- * * *|* * * * so,|e|_ se lie- *|||
 A4 E4 | A4 z2 E2 | F4 D4 | A4 D4 | z2 d2 A3 B | c2 c2 G4 | z2 d2 A3 B | c2 c2 G4 | F8 | G4 G4 | %72
w: ti tal|hor, si|mon- stra|fuo- ri,|han- no per|un pia- cer,|han- no per|un pia- cer,|mil-|le do-|
 A8- | A8 | D8 | z2 d2 A3 B | c2 c2 G4 | z2 d2 A3 B | c2 c2 G4 | F8 | _B8 | B4 G4 | A8- | A8 | %84
w: lo-||ri,|han- no per|un pia- cer,|han- no per|un pia- cer|mil-|le|_ do-|lo-||
 D8 |] %85
w: ri.|

